!!! Genre: Scheidemann Prelude
!!! Title: 7. Praeambulum in d
!!! Number: 1
!!! Level: 2
**kern	**kern	**kern	**kern
*clefF4	*clefF4	*clefG2	*clefG2
*k[b-]	*k[b-]	*k[b-]	*k[b-]
*met(c)	*met(c)	*met(c)	*met(c)
*d:	*d:	*d:	*d:
=1	=1	=1	=1
1D	1F#	1d	1a
.	.	.	.
.	.	.	.
.	.	.	.
.	.	.	.
.	.	.	.
.	.	.	.
.	.	.	.
=2	=2	=2	=2
1GG	2.G	1d	4.b-
.	.	.	.
.	.	.	.
.	.	.	8cc
.	.	.	4b-
.	.	.	.
.	4A	.	4a
.	.	.	.
=3	=3	=3	=3
4GG	1B-	1d	2g
.	.	.	.
4AA	.	.	.
.	.	.	.
4BB-	.	.	2g[
.	.	.	.
4C	.	.	.
.	.	.	.
=4	=4	=4	=4
1D	1A	2d	4g]
.	.	.	.
.	.	.	4g
.	.	.	.
.	.	2d[	2f
.	.	.	.
.	.	.	.
.	.	.	.
=5	=5	=5	=5
1AA	2.A	4d]	2e
.	.	.	.
.	.	8c#L	.
.	.	8BJ	.
.	.	2c#	2a[
.	.	.	.
.	4G	.	.
.	.	.	.
=6	=6	=6	=6
1D	4F#	1d	4a]
.	.	.	.
.	4E	.	8bL
.	.	.	8ccJ
.	2F#	.	4dd
.	.	.	.
.	.	.	4cc
.	.	.	.
=7	=7	=7	=7
1GG	1G	4d	1b
.	.	.	.
.	.	8eL	.
.	.	8fJ	.
.	.	4g	.
.	.	.	.
.	.	4f	.
.	.	.	.
=8	=8	=8	=8
2.C	4G	1e	4cc
.	.	.	.
.	8AL	.	4b
.	8BJ	.	.
.	2c	.	2a[
.	.	.	.
4D	.	.	.
.	.	.	.
=9	=9	=9	=9
1E	4.B	1e	8aL]
.	.	.	8a
.	.	.	8g#
.	8A	.	8f#J
.	8BL	.	8g#
.	8cJ	.	4a
.	4B	.	.
.	.	.	8g#
=10	=10	=10	=10
1AA	1A	1c#	1a
*-	*-	*-	*-
